svg/color/llyon.svg

<svg width="40" height="40" viewBox="0 0 40 40" fill="none" xmlns="http://www.w3.org/2000/svg">
<g clip-path="url(#clip0_821_4097)">
<path d="M20 0C31.0457 0 40 8.9543 40 20C40 31.0457 31.0457 40 20 40C8.95431 40 7.90517e-06 31.0457 0 20C6.58765e-07 8.95431 8.95431 1.97595e-06 20 0Z" fill="#F7D5D2"/>
<path d="M26 6C30.4183 6 34 9.58172 34 14V26C34 30.4183 30.4183 34 26 34H14C9.58172 34 6 30.4183 6 26V14C6 9.58172 9.58172 6 14 6H26Z" fill="#D52B1E"/>
<g clip-path="url(#clip1_821_4097)">
<mask id="mask0_821_4097" style="mask-type:luminance" maskUnits="userSpaceOnUse" x="9" y="14" width="21" height="12">
<path d="M9.99982 14.552H29.9998V25.4536H9.99982V14.552Z" fill="white"/>
</mask>
<g mask="url(#mask0_821_4097)">
<path d="M23.8037 20.9158C23.9194 20.8332 24.0449 20.737 24.1618 20.6449C25.062 19.9246 25.7496 19.1352 25.886 18.6986C25.8901 18.6843 25.9022 18.6438 25.9022 18.6118C25.9022 18.5667 25.8807 18.5352 25.8398 18.5352C25.4265 18.5352 24.1005 19.8555 23.7796 20.9245V20.9282L23.8037 20.9158ZM20.4799 20.764C21.7334 19.8172 23.0503 18.4386 23.1909 17.8727C23.195 17.8543 23.1991 17.8363 23.1987 17.819C23.1969 17.7814 23.1766 17.7484 23.1292 17.7484C22.7325 17.7484 20.8955 19.4426 20.4799 20.764ZM12.7837 21.5963C12.4527 21.3667 11.941 21.1661 11.4837 21.1661C11.0403 21.1661 10.7563 21.3404 10.7563 21.5602C10.7563 21.8123 11.1004 21.9228 11.486 21.9228C11.9534 21.9228 12.3776 21.7965 12.7837 21.5963ZM16.6234 18.6261C17.5221 18.3379 18.3743 17.7356 19.0104 17.1066C19.5977 16.5246 20.0681 15.8336 20.0681 15.4913C20.0681 15.4132 20.0125 15.3662 19.9411 15.3662C19.6695 15.3662 19.1532 15.7273 18.4585 16.4228C17.9178 16.965 17.2877 17.7052 16.6234 18.6261ZM29.9995 20.7986C29.2278 21.5666 26.8231 23.6775 26.1866 25.4536L25.3983 25.2503C25.656 24.5146 26.4319 23.3705 27.2965 22.4879C27.1124 22.557 26.9208 22.583 26.7667 22.583C26.533 22.583 26.3515 22.5123 26.2422 22.3801C26.164 22.2846 26.1242 22.1603 26.1242 22.0122C26.1242 21.9799 26.1265 21.9476 26.131 21.9111C25.3716 22.3737 24.761 22.5826 24.1629 22.5826C23.6973 22.5826 23.3055 22.3797 23.124 22.0239C22.3702 22.3977 21.6473 22.5826 21.0431 22.5826C20.4807 22.5826 20.0272 22.3598 19.819 21.954C19.057 22.3823 18.4085 22.5826 17.8926 22.5826C17.5958 22.5826 17.3602 22.5003 17.2091 22.3444C17.0979 22.2294 17.0393 22.075 17.0307 21.8965C16.5422 22.2185 15.8283 22.5826 15.0968 22.5826C14.3483 22.5826 13.8463 22.3256 13.4567 22.0708C12.8352 22.415 12.1514 22.5826 11.4285 22.5826C10.8821 22.5826 10.0007 22.3553 10.0007 21.5719C9.99955 20.9395 10.6593 20.5112 11.5423 20.5112C12.293 20.5112 13.0163 20.8275 13.4702 21.1559C13.9008 20.8129 14.3528 20.3331 14.886 19.6549C14.7688 19.6616 14.6542 19.6646 14.5414 19.6646C13.5206 19.6646 12.668 19.3637 12.2025 18.8369C11.9511 18.5521 11.832 18.218 11.832 17.8585C11.832 16.4382 13.6261 15.3362 15.1956 15.1738C15.2993 15.4091 15.3917 15.5902 15.4875 15.8055C13.9372 15.9858 12.6458 16.9034 12.6458 17.8002C12.6458 18.3898 13.3083 18.9819 14.7146 18.9819C14.9555 18.9819 15.1975 18.9586 15.4357 18.9259C16.6771 17.2126 18.5791 14.552 20.2162 14.552C20.7005 14.552 20.9537 14.8466 20.9537 15.2403C20.9537 16.0504 20.2567 16.9225 19.8028 17.3775C19.0897 18.0941 17.7994 19.1604 15.9978 19.5136C15.297 20.4886 14.721 21.1353 14.1447 21.6023C14.4937 21.7905 14.8214 21.9063 15.2117 21.9063C16.1815 21.9063 17.1224 21.0188 17.8569 20.2662L17.8828 20.241L18.4555 20.6889L18.4292 20.7204C18.1045 21.0928 17.8051 21.4866 17.8051 21.7071C17.8051 21.8743 17.9467 21.9074 18.0681 21.9074C18.4393 21.9074 19.0119 21.6669 19.6856 21.2529V21.2472C19.76 19.5827 22.0317 17.0371 23.4107 17.0371C23.7999 17.0371 24.0235 17.231 24.0235 17.5707C24.0235 18.4052 22.584 20.194 20.4901 21.5632V21.5643C20.5983 21.7973 20.8478 21.9096 21.2712 21.9096C21.6015 21.9096 22.2478 21.7624 23.0158 21.3611C23.1044 20.4988 23.5933 19.5726 24.2132 18.9124C24.8351 18.2515 25.5321 17.822 26.1347 17.822C26.5063 17.822 26.7258 18.0264 26.7258 18.3477C26.7258 19.0755 25.8807 20.3199 23.845 21.623C23.9352 21.7973 24.1099 21.9074 24.3819 21.9074C24.9884 21.9074 26.0566 21.2604 26.8885 20.4649L27.4859 20.9286C27.2308 21.2382 26.9726 21.5782 26.9809 21.774C26.9831 21.8375 27.026 21.8803 27.1263 21.8803C27.7395 21.8803 28.7048 21.0706 29.4284 20.356L29.9995 20.7986ZM18.9 19.1292C19.1709 19.1292 19.3895 19.349 19.3895 19.6195C19.3895 19.8904 19.1709 20.1099 18.9 20.1099C18.6279 20.1099 18.4085 19.8904 18.4085 19.6195C18.4089 19.349 18.6283 19.1292 18.9 19.1292Z" fill="white"/>
</g>
</g>
</g>
<defs>
<clipPath id="clip0_821_4097">
<rect width="40" height="40" fill="white"/>
</clipPath>
<clipPath id="clip1_821_4097">
<rect width="20" height="20" fill="white" transform="translate(10 10)"/>
</clipPath>
</defs>
</svg>

<svg xmlns="http://www.w3.org/2000/svg" width="40" height="40" fill="none" viewBox="0 0 40 40"><g clip-path="url(#llyon_svg-a)"><path fill="#F7D5D2" d="M20 0c11.046 0 20 8.954 20 20s-8.954 20-20 20S0 31.046 0 20 8.954 0 20 0"/><path fill="#D52B1E" d="M26 6a8 8 0 0 1 8 8v12a8 8 0 0 1-8 8H14a8 8 0 0 1-8-8V14a8 8 0 0 1 8-8z"/><g clip-path="url(#llyon_svg-b)"><mask id="llyon_svg-c" width="21" height="12" x="9" y="14" maskUnits="userSpaceOnUse" style="mask-type:luminance"><path fill="#fff" d="M10 14.552h20v10.902H10z"/></mask><g mask="url(#llyon_svg-c)"><path fill="#fff" d="M23.804 20.916c.115-.083.24-.179.358-.271.9-.72 1.588-1.51 1.724-1.946.004-.015.016-.055.016-.087 0-.045-.021-.077-.062-.077-.413 0-1.74 1.32-2.06 2.39v.003zm-3.324-.152c1.253-.947 2.57-2.325 2.71-2.891q.009-.028.009-.054c-.002-.038-.022-.07-.07-.07-.396 0-2.234 1.694-2.65 3.015m-7.696.832c-.331-.23-.843-.43-1.3-.43-.444 0-.728.174-.728.394 0 .252.344.363.73.363.467 0 .892-.126 1.298-.327m3.84-2.97c.898-.288 1.75-.89 2.386-1.52.588-.581 1.058-1.272 1.058-1.615 0-.078-.056-.125-.127-.125-.271 0-.788.361-1.482 1.057-.541.542-1.171 1.282-1.836 2.203M30 20.8c-.772.768-3.177 2.878-3.813 4.655l-.789-.204c.258-.735 1.034-1.88 1.899-2.762a1.6 1.6 0 0 1-.53.095c-.234 0-.415-.07-.525-.203a.56.56 0 0 1-.118-.368q0-.047.007-.1c-.76.462-1.37.67-1.968.67-.466 0-.858-.202-1.039-.558-.754.374-1.477.559-2.08.559-.563 0-1.017-.223-1.225-.629-.762.428-1.41.629-1.926.629-.297 0-.533-.083-.684-.239a.67.67 0 0 1-.178-.448c-.489.322-1.203.687-1.934.687-.749 0-1.25-.257-1.64-.512a4.14 4.14 0 0 1-2.029.512c-.546 0-1.427-.228-1.427-1.011-.001-.633.658-1.06 1.541-1.06.751 0 1.474.316 1.928.644.43-.343.883-.823 1.416-1.501q-.175.01-.345.01c-1.02 0-1.873-.301-2.338-.828a1.44 1.44 0 0 1-.371-.979c0-1.42 1.794-2.522 3.364-2.684.103.235.196.416.292.632-1.55.18-2.842 1.097-2.842 1.994 0 .59.662 1.182 2.069 1.182.24 0 .482-.023.72-.056 1.242-1.713 3.144-4.374 4.781-4.374.485 0 .738.295.738.688 0 .81-.697 1.682-1.151 2.138-.713.716-2.004 1.782-3.805 2.136-.701.975-1.277 1.621-1.853 2.088.349.189.676.304 1.067.304.97 0 1.91-.887 2.645-1.64l.026-.025.573.448-.027.031c-.324.373-.624.767-.624.987 0 .167.142.2.263.2.371 0 .944-.24 1.618-.654v-.006c.074-1.664 2.346-4.21 3.725-4.21.389 0 .612.194.612.534 0 .834-1.439 2.623-3.533 3.992v.001c.108.233.358.346.781.346.33 0 .977-.148 1.745-.549.088-.862.577-1.788 1.197-2.449.622-.66 1.32-1.09 1.922-1.09.371 0 .59.204.59.526 0 .728-.844 1.972-2.88 3.275.09.174.265.284.537.284.606 0 1.675-.647 2.506-1.442l.598.464c-.255.31-.513.65-.505.845.002.063.045.106.145.106.613 0 1.579-.81 2.302-1.524zm-11.1-1.67a.49.49 0 1 1 0 .98.49.49 0 0 1 0-.98"/></g></g></g><defs><clipPath id="llyon_svg-a"><path fill="#fff" d="M0 0h40v40H0z"/></clipPath><clipPath id="llyon_svg-b"><path fill="#fff" d="M10 10h20v20H10z"/></clipPath></defs></svg>
